svg/u1f4c2.svg

<svg viewBox="0 0 128 128" xmlns="http://www.w3.org/2000/svg">
  <defs/>
  <path d="M37.02,27.71 L37.02,25.97 C37.02,22.5 34.94,21.78 32.66,22.19 L13.56,25.64 C11.27,26.05 9.59,28.11 9.59,30.51 L9.59,34.95 C9.59,36.57 8.46,37.96 6.91,38.24 L6.57,38.3 C5.23,38.54 4.24,39.74 4.24,41.15 C4.24,41.15 4.22,114.8 4.22,115.5 C4.22,116.97 4.83,116.83 5.29,116.71 L99.16,94.55 C100.5,94.31 101.49,93.11 101.49,91.7 L101.49,25.13 C101.49,23.34 99.93,21.98 98.22,22.28 L41.91,31.97 C39.36,32.42 37.02,31.46 37.02,27.71 Z" fill="#F3AB47"/>
  <path d="M103.4,91.44 L123.36,48.2 C123.72,47.42 123.79,46.51 123.41,45.74 C122.95,44.8 122,44.23 120.47,44.51 L64.2,54.13 C61.58,54.58 60.71,55.07 59.45,59.42 C58.19,63.77 57.59,68.8 53.81,69.21 L32.85,72.74 C28.92,73.46 27.27,77.62 27.27,77.62 L5.1,116.76 L99.6,94.53 C100.95,94.3 102.48,93.04 103.4,91.44 Z" fill="#FFE36C"/>
  <path d="M120.634,46.546 L65.796,55.674 Q63.405,56.134 62.618,56.909 Q61.806,57.708 61.074,60.375 Q61.027,60.545 60.933,60.892 Q58.237,70.761 53.949,71.261 L33.016,74.786 Q32.03,74.952 31.864,73.966 Q31.698,72.98 32.684,72.814 L53.673,69.279 L53.702,69.276 Q56.657,68.955 59.003,60.365 Q59.099,60.016 59.146,59.845 Q60.02,56.66 61.215,55.484 Q62.435,54.282 65.432,53.708 L65.444,53.706 L120.306,44.574 Q120.799,44.491 121.087,44.697 Q121.374,44.903 121.456,45.396 Q121.621,46.382 120.634,46.546 Z" fill="#FFF9C4"/>
</svg>

<svg viewBox="0 0 128 128" xmlns="http://www.w3.org/2000/svg">
  <g>
    <path d="M37.02,27.71v-1.74c0-3.47-2.08-4.19-4.36-3.78l-19.1,3.45c-2.29,0.41-3.97,2.47-3.97,4.87v4.44 c0,1.62-1.13,3.01-2.68,3.29L6.57,38.3c-1.34,0.24-2.33,1.44-2.33,2.85c0,0-0.02,73.65-0.02,74.35c0,1.47,0.61,1.33,1.07,1.21 l93.87-22.16c1.34-0.24,2.33-1.44,2.33-2.85V25.13c0-1.79-1.56-3.15-3.27-2.85l-56.31,9.69C39.36,32.42,37.02,31.46,37.02,27.71z" fill="#F3AB47"/>
    <path d="M103.4,91.44l19.96-43.24c0.36-0.78,0.43-1.69,0.05-2.46c-0.46-0.94-1.41-1.51-2.94-1.23 l-56.27,9.62c-2.62,0.45-3.49,0.94-4.75,5.29s-1.86,9.38-5.64,9.79l-20.96,3.53c-3.93,0.72-5.58,4.88-5.58,4.88L5.1,116.76 l94.5-22.23C100.95,94.3,102.48,93.04,103.4,91.44z" fill="#FFE36C"/>
    <path d="M120.47,45.56l-54.85,9.13 c-3.6,0.69-4.44,1.52-5.51,5.42c-1.2,4.37-2.52,9.75-6.3,10.16l-20.96,3.53" fill="none" stroke="#FFF9C4" stroke-width="2" stroke-linecap="round" stroke-miterlimit="10"/>
  </g>
</svg>
